!!!COM: Ioteba, Urium Tamuera
!!!CDT: 1847-1926
!!!OTL: National Anthem, Kiribati
!!!ENC: Davis, Matthew J.
!!Vocal Line Only
**kern
*clefG2
*k[f#]
*G:
*M4/4
=1-
4g
4d
8.b
16cc
8b
8a
=2
4g
4f#
2g
=3
8e
8e
4e
8.a
16b
8a
8g
=4
4f#
4g
2a
=5
4g
4d
8.g
16a
8b
8g
=6
4e
4a
2a
=7
8a
8g
8.f#
16e
4d
4a
=8
4cc
4b
2b
=9
4b
4g
8.g
16a
4b
=10
8a
8g
4cc
4dd
4ee
=11
8dd
8cc
8b
8g
4a
4a
=12
4b
4cc
2a
=13
4b
4g
8.g
16a
4b
=14
8a
8g
4cc
4dd
4ee
=15
8dd
8cc
8b
8g
4a
4a
=16
1g
==|!
*-
